X: 5486
T: Bunker Hill
R: reel
M: 4/4
K: Dmixolydian
cA|GECE D2AD|(3EFG AB ~c2Bc|AcAG EG~G2|ABcA d2 cA:|
Gc~c2 ec~c2|GccB cAGc|Ad~d2 fd~d2|Adde dcAG|
FGAB cAdB|cAdB c2Bc|de cA BGFG|1 ABcA d2 cA:|2 ABcA dfag||
fd~d2 fdad|fadf a2gf|ge ~e2 gebe|gbeg b2ag|
fddc ABcA|dcAB ~c2Bc|d2 cA BGFG|1 ABcA d3e:|2 ABcA d2 cA||

